X:1
T:Gastorius, 87.87.877
T:Severus Gastorius, 1675
T:Gastorius, 87.87.877
T:Public Domain
C:Severus Gastorius, 1675
Z:Public Domain
%%score ( 1 2 ) ( 3 4 )
L:1/8
M:4/4
K:G
V:1 treble 
V:2 treble 
V:3 bass 
V:4 bass 
V:1
 [B,D]2 | [EG]2 [FA]2 [GB]2 [Ge]2 | [Fd]2 GA [GB]2 [Ge]2 | d2 z F [GB]2 [GB]2 | G2 F2 G2 [B,D]2 | %5
 [EG]2 [FA]2 [GB]2 [Ge]2 | [Fd]2 GA [GB]2 [Ge]2 | d2 z F [GB]2 [GB]2 | G2 F2 G2 [Gd]2 | %9
 [Ge]2 [Ge]2 [FA]2 [FA]2 | GFG=F [EG]2 GF | [EA]2 DE [DF]2 [DF]2 | D2 ^C2 D2 [Gd]2 | %13
 [Ge]2 [Fd]2 ED [DB]2 | E2 DC [B,G]2 |] %15
V:2
 x2 | x8 | x2 c2 x4 | G3 c2 x3 | A4 x4 | x8 | x2 c2 x4 | G3 c2 x3 | A4 x4 | x8 | d2 d2 x B2 x | %11
 x2 G2 x4 | E4 x4 | x4 c2 x2 | A4 x2 |] %15
V:3
 G,2 | [E,B,]2 [D,D]2 [G,D]2 [C,C]2 | [D,A,]2 [E,E][F,D] [G,D]2 [C,C]2 | %3
 [G,B,]2 [A,C]2 [B,D]2 [G,D]2 | [C,E]2 DC [G,B,]2 G,2 | [E,B,]2 [D,D]2 [G,D]2 [C,C]2 | %6
 [D,A,]2 [E,E][F,D] [G,D]2 [C,C]2 | [G,B,]2 [A,C]2 [B,D]2 [G,D]2 | [C,E]2 DC [G,B,]2 [G,B,]2 | %9
 CB, [^C,A,]2 [D,D]2 D,=C, | B,,A,, [B,,D]2 [C,C]2 [G,,D]2 | %11
 [A,,^C]2 [B,,B,][^C,A,] [D,A,]2 [B,,B,]2 | [G,,B,]2 A,G, [D,F,]2 [B,,D]2 | %13
 CB, [D,A,]2 [E,G,][F,A,] G,2 | [C,G,]2 [D,F,]2 [G,,G,]2 |] %15
V:4
 x2 | x8 | x8 | x8 | x2 D,2 x4 | x8 | x8 | x8 | x2 D,2 x4 | C,2 x3 D2 x | D2 x6 | x8 | x2 A,,2 x4 | %13
 C,2 x6 | x6 |] %15

